X: 1454
T: Frank Forde's Schottische
B: australian traditional tunes wiki
M:4/4
L:1/8
R: Schottische
Q: 1/4=100
K:D
V:1 
((3ABc)|"D"((3dcd)F2 d>c d>c|"G"((3BcB) G2D2G>A|"E7"B>^G B>G B>G e>d|"A7"((3cBc) A2A2 ((3ABc)|
"D"((3dcd)F2 d>c d>c|"G"((3BcB) G2D2G>A|"E7"B>^G B>G "A7"c>A f>e|"D"((3dcd) f2d2A>F||
"A7"((3EFG) ((3EFG) A>G F>E|"D"((3FGF) ((3dcB) ((3AGF) E>D|"A7"E>A E>A E>d c>d|"E7"B>^G A>B "A7"c2 ((3ABc)|
"D"((3dcd)F2 d>c d>c|"G"((3BcB) G2D2G>A|"E7"B>^G B>G "A7"c>A f>e|"D"((3dcd)f2d4||
% abcbook-tune_id 6342d53a29e3dd30e0238639


% abcbook-boost 0
% abcbook-tablature 
% abcbook-transpose 
% abcbook-lastupdated 1665324365845
% abcbook-soundfonts 
% abcbook-repeats 1
% NFF Book 2015

